svgs/adguard.svg

<svg xmlns="http://www.w3.org/2000/svg" width="192" height="192" viewBox="0 0 192 192" style="enable-background:new 0 0 192 192" xml:space="preserve"><path d="M164.8 37.6c2.4 1.2 4 3.6 4.1 6.2.4 15-1.2 45.7-20.3 77-16.1 26.4-37.1 41.1-49.4 48.2-2.3 1.3-5 1.3-7.3 0-12.2-7.2-33-22-48.8-48.2-18.9-31.4-20.4-62-20-77 .1-2.7 1.6-5.1 4.1-6.2C40.7 31.1 64.6 22.1 95.5 22c31.4-.1 55.7 9.1 69.3 15.6z" style="fill:none;stroke:#000;stroke-width:12;stroke-linecap:round;stroke-linejoin:round;stroke-miterlimit:10"/><path d="m131.1 63.9-35.9 37.3c-.9.9-2.4.9-3.2-.1L79.6 86.2c-.9-1.1-2-2.1-3.2-2.8-1.4-.9-3.3-1.7-5.7-1.8-3.8-.2-6.6 1.5-8.3 2.9-.9.8-1 2.2-.3 3.1 9.1 10.7 18.1 21.4 27.2 32 2.2 2.6 6.3 2.5 8.3-.3l39.9-54c1-1.4.1-3.4-1.6-3.4-1 0-1.9.2-2.6.5-.7.3-1.5.8-2.2 1.5z"/></svg>

<svg width="192" height="192" viewBox="0 0 192 192" fill="none" xmlns="http://www.w3.org/2000/svg">
<path d="M164.8 37.6C167.2 38.8 168.8 41.2 168.9 43.8C169.3 58.8 167.7 89.5 148.6 120.8C132.5 147.2 111.5 161.9 99.2 169C96.9 170.3 94.2 170.3 91.9 169C79.7 161.8 58.9 147 43.1 120.8C24.2 89.4 22.7 58.8 23.1 43.8C23.2 41.1 24.7 38.7 27.2 37.6C40.7 31.1 64.6 22.1 95.5 22C126.9 21.9 151.2 31.1 164.8 37.6Z" stroke="black" stroke-width="12" stroke-miterlimit="10" stroke-linecap="round" stroke-linejoin="round"/>
<path d="M69 89.625L90.157 113C101.264 96.5312 117.661 75.8125 133 62" stroke="black" stroke-width="12" stroke-linecap="round" stroke-linejoin="round"/>
</svg>
